X:1
T:Gneevequilla Polka
R:Polka
M:2/4
%%printtempo 0
Q:120
K:Ador
AB|:\
"Am"c2dc "G"B2cB|"Am"A2BA "G"G2GA|B2d2 e2d2|g4 g2d2|"C"e2a2 g2e2|"G"dedB G2AB|
"Am"c2e2 "G"d2B2|1 "Am"A4 A2AB:|2A6 z2|:"Am"e2a2 a2ge|"G"d2g2 g2d2|"Am"e2a2 a2b2|
"G"g4 g2d2|"C"e2a2 g2e2|"G"dedB G2AB|"Am"c2e2 "Em"d2B2|"Am" A4A4:|
